packages/sources/icons/src/vitamix/mail-line.svg

<svg width="16" height="16" viewBox="0 0 16 16" fill="none" xmlns="http://www.w3.org/2000/svg">
<path fill-rule="evenodd" clip-rule="evenodd" d="M2 2H14C14.3682 2 14.6667 2.29848 14.6667 2.66667V13.3333C14.6667 13.7015 14.3682 14 14 14H2C1.63181 14 1.33334 13.7015 1.33334 13.3333V2.66667C1.33334 2.29848 1.63181 2 2 2ZM13.3333 4.82535L8.048 9.55869L2.66667 4.81069V12.6667H13.3333V4.82535ZM8.04059 7.77467L3.00726 3.33333H13.0013L8.04059 7.77467Z" fill="#001018"/>
</svg>

<svg width="16" height="16" fill="none" xmlns="http://www.w3.org/2000/svg"><path fill-rule="evenodd" clip-rule="evenodd" d="M2 2h12c.368 0 .667.298.667.667v10.666A.667.667 0 0 1 14 14H2a.667.667 0 0 1-.667-.667V2.667C1.333 2.298 1.632 2 2 2zm11.333 2.825L8.048 9.56 2.667 4.81v7.856h10.666V4.825zm-5.292 2.95L3.007 3.333h9.994l-4.96 4.442z" fill="#001018"/></svg>
